image/euro.svg

<svg width="20px" height="20px" viewBox="0 0 20 20" version="1.1" xmlns="http://www.w3.org/2000/svg">
            <g id="layer1">
             <path fill="#000" d="M 12.851562 3 L 12.388672 3.0253906 L 11.927734 3.0820312 L 11.472656 3.1660156 L 11.021484 3.2832031 L 10.582031 3.4296875 L 10.152344 3.6035156 L 9.734375 3.8066406 L 9.3320312 4.0371094 L 8.9453125 4.2929688 L 8.5761719 4.5742188 L 8.2246094 4.8789062 L 7.8964844 5.2070312 L 7.5898438 5.5566406 L 7.3085938 5.9238281 L 7.0507812 6.3105469 L 6.8203125 6.7128906 L 6.6152344 7.1289062 L 6.4394531 7.5585938 L 6.2910156 8 L 4.4746094 8 L 4 9 L 6.0722656 9 L 6.0253906 9.3984375 L 6.0019531 9.7988281 L 6.0019531 10.201172 L 6.0253906 10.599609 L 6.0722656 11 L 4.4746094 11 L 4 12 L 6.2910156 12 L 6.4394531 12.441406 L 6.6152344 12.871094 L 6.8203125 13.287109 L 7.0507812 13.689453 L 7.3085938 14.076172 L 7.5898438 14.443359 L 7.8964844 14.792969 L 8.2246094 15.121094 L 8.5761719 15.423828 L 8.9453125 15.707031 L 9.3320312 15.962891 L 9.734375 16.193359 L 10.152344 16.394531 L 10.582031 16.570312 L 11.021484 16.714844 L 11.472656 16.832031 L 11.927734 16.917969 L 12.388672 16.974609 L 12.851562 17 L 13.316406 16.994141 L 13.777344 16.957031 L 14.236328 16.890625 L 14.691406 16.792969 L 15.138672 16.666016 L 15.574219 16.509766 L 16 16.324219 L 15.572266 15.421875 L 15.1875 15.587891 L 14.792969 15.726562 L 14.388672 15.837891 L 13.980469 15.919922 L 13.564453 15.972656 L 13.146484 16 L 12.728516 15.996094 L 12.310547 15.960938 L 11.896484 15.898438 L 11.488281 15.806641 L 11.089844 15.6875 L 10.697266 15.541016 L 10.316406 15.367188 L 9.9492188 15.166016 L 9.5976562 14.941406 L 9.2617188 14.691406 L 8.9414062 14.419922 L 8.6445312 14.126953 L 8.3671875 13.814453 L 8.1132812 13.480469 L 7.8828125 13.132812 L 7.6757812 12.767578 L 7.4960938 12.388672 L 7.34375 12 L 12.050781 12 L 12.525391 11 L 7.0839844 11 L 7.03125 10.601562 L 7.0039062 10.201172 L 7.0039062 9.7988281 L 7.03125 9.3984375 L 7.0839844 9 L 13.474609 9 L 13.949219 7.9980469 L 7.34375 7.9980469 L 7.4960938 7.609375 L 7.6757812 7.2324219 L 7.8828125 6.8671875 L 8.1132812 6.5195312 L 8.3671875 6.1855469 L 8.6445312 5.8730469 L 8.9414062 5.578125 L 9.2617188 5.3066406 L 9.5976562 5.0585938 L 9.9492188 4.8320312 L 10.316406 4.6328125 L 10.697266 4.4589844 L 11.089844 4.3105469 L 11.488281 4.1914062 L 11.896484 4.0996094 L 12.310547 4.0371094 L 12.728516 4.0039062 L 13.146484 4 L 13.564453 4.0253906 L 13.980469 4.078125 L 14.388672 4.1621094 L 14.792969 4.2714844 L 15.1875 4.4121094 L 15.572266 4.578125 L 16 3.6738281 L 15.574219 3.4902344 L 15.138672 3.3339844 L 14.691406 3.2050781 L 14.236328 3.1074219 L 13.777344 3.0410156 L 13.316406 3.0058594 L 12.851562 3 z " style="fill-opacity:1; stroke:none; stroke-width:0px;"></path>
            </g>
           </svg>

<svg width="20" height="20" xmlns="http://www.w3.org/2000/svg"><path d="M12.852 3l-.463.025-.461.057-.455.084-.452.117-.439.147-.43.174-.418.203-.402.23-.387.256-.369.281-.351.305-.329.328-.306.35-.281.367-.258.387-.23.402-.206.416-.176.43L6.291 8H4.475L4 9h2.072l-.047.398-.023.4v.403l.023.399.047.4H4.475L4 12h2.291l.148.441.176.43.205.416.23.402.259.387.28.367.307.35.329.328.351.303.37.283.386.256.402.23.418.202.43.175.44.145.45.117.456.086.46.057.464.025.464-.006.461-.037.46-.066.454-.098.448-.127.435-.156.426-.186-.428-.902-.384.166-.395.139-.404.11-.409.083-.416.053-.418.027-.417-.004-.418-.035-.415-.063-.408-.091-.398-.12-.393-.146-.38-.174-.368-.201-.351-.225-.336-.25-.32-.271-.297-.293-.278-.313-.254-.334-.23-.347-.207-.365-.18-.38L7.344 12h4.707l.474-1H7.084l-.053-.398-.027-.4v-.403l.027-.4L7.084 9h6.39l.475-1.002H7.344l.152-.389.18-.377.207-.365.23-.347.254-.334.278-.313.296-.295.32-.271.337-.248.351-.227.367-.2.381-.173.393-.148.398-.12.408-.091.415-.063.418-.033.417-.004.418.025.416.053.409.084.404.11.395.14.384.166.428-.904-.426-.184-.435-.156-.448-.129-.455-.098-.459-.066-.46-.035L12.851 3z"/></svg>917969 L 12.388672 16.974609 L 12.851562 17 L 13.316406 16.994141 L 13.777344 16.957031 L 14.236328 16.890625 L 14.691406 16.792969 L 15.138672 16.666016 L 15.574219 16.509766 L 16 16.324219 L 15.572266 15.421875 L 15.1875 15.587891 L 14.792969 15.726562 L 14.388672 15.837891 L 13.980469 15.919922 L 13.564453 15.972656 L 13.146484 16 L 12.728516 15.996094 L 12.310547 15.960938 L 11.896484 15.898438 L 11.488281 15.806641 L 11.089844 15.6875 L 10.697266 15.541016 L 10.316406 15.367188 L 9.9492188 15.166016 L 9.5976562 14.941406 L 9.2617188 14.691406 L 8.9414062 14.419922 L 8.6445312 14.126953 L 8.3671875 13.814453 L 8.1132812 13.480469 L 7.8828125 13.132812 L 7.6757812 12.767578 L 7.4960938 12.388672 L 7.34375 12 L 12.050781 12 L 12.525391 11 L 7.0839844 11 L 7.03125 10.601562 L 7.0039062 10.201172 L 7.0039062 9.7988281 L 7.03125 9.3984375 L 7.0839844 9 L 13.474609 9 L 13.949219 7.9980469 L 7.34375 7.9980469 L 7.4960938 7.609375 L 7.6757812 7.2324219 L 7.8828125 6.8671875 L 8.1132812 6.5195312 L 8.3671875 6.1855469 L 8.6445312 5.8730469 L 8.9414062 5.578125 L 9.2617188 5.3066406 L 9.5976562 5.0585938 L 9.9492188 4.8320312 L 10.316406 4.6328125 L 10.697266 4.4589844 L 11.089844 4.3105469 L 11.488281 4.1914062 L 11.896484 4.0996094 L 12.310547 4.0371094 L 12.728516 4.0039062 L 13.146484 4 L 13.564453 4.0253906 L 13.980469 4.078125 L 14.388672 4.1621094 L 14.792969 4.2714844 L 15.1875 4.4121094 L 15.572266 4.578125 L 16 3.6738281 L 15.574219 3.4902344 L 15.138672 3.3339844 L 14.691406 3.2050781 L 14.236328 3.1074219 L 13.777344 3.0410156 L 13.316406 3.0058594 L 12.851562 3 z " style="fill-opacity:1; stroke:none; stroke-width:0px;"></path>
            </g>
           </svg>
